X:991
T:New Custom House, The
T:New Customs House, The
T:Paddy Kelly's
R:reel
C:Paddy Kelly, East Galway
Z:id:hn-reel-991
M:C|
L:1/8
K:Dmix
A2DE FGAB | cAGE CEFG | A2DE FGAB | c2ec dcAG |
A2DE FGAB | cAGE CEFG | ADFD FGAB | cAGE EDD2 :|
|: Add^c d2cd | ed^cd efge | Add^c d2cd | eaag ed^cd |
Add^c d2cd | ed^cd efge | afge d2 (3Bcd | eaag ed^cd :| 
P:variations
|: AD (3FED FGAB | cAGE CEFG | A2DE FGAB | c3e dcAG |
ADDE FGAB | cAGE CEFG | ADFD (3EFG AB | cAGE ADD2 :|
|: Ad~d2 Adfd | ecc2 efge | Ad~d2 Adfa | gfeg fde^c |
Ad~d2 Adfd | ecc2 efge | afgf ed (3Bcd | eaag edd^c :| 

